svg/u1f393.svg

<svg viewBox="0 0 128 128" xmlns="http://www.w3.org/2000/svg">
  <g>
    <path d="M99.06,91.42c0,0-15.11,14.18-35.09,14.18S28.89,91.42,28.89,91.42s-2.81-13.49,4.45-36.78 c3.83-12.28,58.33-13.53,62.6-2.79C103.2,70.08,99.06,91.42,99.06,91.42z" fill="#424242"/>
    <path d="M28.89,91.42l4.79,3.84c0,0-0.04-7.6,2.31-14.69c0.88-2.65,4.02-3.76,6.38-2.27l18.29,11.47 c2.05,1.28,4.63,1.3,6.7,0.05C76.1,84.52,98.9,70.65,99.94,69.8c0,0,0-1.71-0.43-3.89L28.63,66L28.89,91.42z" fill="#212121"/>
    <path d="M122.81,52.03l-56.8,33.83c-1.24,0.74-2.79,0.74-4.04,0L5.19,52.03c-1.58-0.94-1.58-3.23,0-4.17 l56.8-33.83c1.24-0.74,2.79-0.74,4.04,0l56.8,33.83C124.4,48.8,124.4,51.09,122.81,52.03z" fill="#424242"/>
    <path d="M64.04,83.38c-0.01,0-0.03,0.01-0.04,0.01c-0.16,0-0.32-0.04-0.46-0.13L4.18,49.04 c0,0-0.29,0.55,0,1.54c0.3,0.99,0.76,1.31,1.01,1.46l56.8,33.83c0.62,0.37,1.32,0.56,2.02,0.56c0.01,0,0.03,0,0.04,0V83.38z" fill="#9E9E9E"/>
    <path d="M64,83.38c0.01,0,0.03,0.01,0.04,0.01c0.16,0,0.32-0.04,0.46-0.13l59.36-34.22c0,0,0.29,0.55,0,1.54 c-0.3,0.99-0.76,1.31-1.01,1.46l-56.8,33.83c-0.62,0.37-1.32,0.56-2.02,0.56c-0.01,0-0.03,0-0.04,0V83.38z" fill="#616161"/>
    <path d="M35.45,70.06l0.32-2.81c0,0,24.51-13.33,26.93-14.73c2.42-1.4,4.96-2.96,6.09-4.21 c2-2.2,0.56-3.58,0.56-3.58s-1.58,2.56-5.35,2.11c-2.16-0.26-4.97-2.01-5.44-2.83s-27.67,19.9-27.67,19.9l-0.19,3.33L35.45,70.06z" fill="#424242"/>
    <path d="M69.35,44.74c-2.62,3.66-7.06,2.06-7.06,2.06s-13.91,6.67-14.43,5.66s11.49-7.19,11.49-7.19 s-0.67-2.46-0.6-3.51c0,0-21.72,13.82-29.87,18.47c-4.27,2.44-5.18,4.74-5.17,7.98c0,1.42,0.02,6.03,0.04,8.78 c0,0.51-0.22,0.99-0.61,1.31c-1.15,0.95-1.89,2.38-1.89,3.99c0,1.53,0.67,2.9,1.73,3.85c0.57,0.51,0.45,1.61,0.5,2.32 c0.1,1.36,0,1.98-0.56,3.24c-0.55,1.23-1.06,2.49-1.41,3.79c-0.27,1-0.45,2.03-0.63,3.05c-1.19,6.83-1.73,14.13-4.88,20.41 c-0.25,0.49-0.05,1.09,0.45,1.34c0.14,0.07,0.3,0.11,0.45,0.11c0.37,0,0.72-0.2,0.9-0.55c1.64-3.27,2.49-6.85,3.19-10.4 c-0.04,3.21-0.06,6.45-0.17,9.95c-0.02,0.68-0.07,2.05,0.55,2.35c2.33,1.13,2.33-2.35,2.33-2.35s0.03,3.13,3.2,3.13 s3.4-3.13,3.4-3.13s0.23,2.87,1.86,2.73c0.66-0.06,1.53-0.46,1.22-3.89c-0.31-3.42-1.08-15.68-1.41-19.56 c-0.46-5.37-2.22-8.56-2.58-10.46c-0.13-0.72-0.14-1.47,0.43-1.94c1.15-0.95,1.89-2.38,1.89-3.99c0-1.55-0.68-2.94-1.76-3.89 c-0.41-0.36-0.62-0.88-0.58-1.42c0.19-2.59,0.4-6.35,0.57-7.22c0.74-3.91,2.67-4.61,4.65-5.77c1.98-1.17,30.66-14.19,32.33-15.3 C70.01,46.62,69.35,44.74,69.35,44.74z" fill="#E2A610"/>
    <path d="M69.35,44.74c-2.47,3.49-7.6,1.93-7.6,1.93s-13.11,5.81-12.24,4.76c0.86-1.05,9.84-6.16,9.84-6.16 s-0.67-2.46-0.6-3.51c0,0-22.1,12.77-30.67,18.91c-2.21,1.59-4.95,4.19-2.72,6.78c1.03,1.19,3.02,1.44,4.29,0.5 c0.77-0.56,1.37-1.38,2.05-2.03c0.84-0.82,1.86-1.34,2.86-1.93c1.98-1.17,30.66-14.19,32.33-15.3 C70.01,46.62,69.35,44.74,69.35,44.74z" fill="#FFCA28"/>
    <path d="M26.11,91.86c-1.32,0-2.21-0.11-3.02-0.3c-0.3-0.07-0.5-0.34-0.48-0.65l0.26-3.82 c0.03-0.39,0.4-0.66,0.78-0.55c0.9,0.26,2.7,0.52,5.64-0.1c0.36-0.08,0.72,0.17,0.76,0.54l0.4,3.8c0.03,0.31-0.17,0.6-0.47,0.67 C28.45,91.8,27.34,91.86,26.11,91.86z" fill="#9E740B"/>
    <path d="M99.06,91.42c0,0,1.77-9.24,1.06-19.07c-0.12-1.66-1.14-3.09-1.93,2.72 c-0.45,3.33-1.43,13.3-3.1,19.53C97.64,92.76,99.06,91.42,99.06,91.42z" fill="#616161"/>
    <path d="M65.73,36.79c0.73,0.23,1.4,0.79,1.59,1.54c0.25,1-0.38,2-1.06,2.78c-1.33,1.53-3.16,2.87-5.19,2.8 c-0.67-0.02-1.39-0.24-1.8-0.77c-0.29-0.37-0.39-0.85-0.42-1.32C58.67,38.39,62.55,35.79,65.73,36.79z" fill="#616161"/>
  </g>
</svg>

<svg viewBox="0 0 128 128" xmlns="http://www.w3.org/2000/svg">
  <defs/>
  <path d="M99.06,91.42 C99.06,91.42 83.95,105.6 63.97,105.6 C43.99,105.6 28.89,91.42 28.89,91.42 C28.89,91.42 26.08,77.93 33.34,54.64 C37.17,42.36 91.67,41.11 95.94,51.85 C103.2,70.08 99.06,91.42 99.06,91.42 Z" fill="#424242"/>
  <path d="M28.89,91.42 L33.68,95.26 C33.68,95.26 33.64,87.66 35.99,80.57 C36.87,77.92 40.01,76.81 42.37,78.3 L60.66,89.77 C62.71,91.05 65.29,91.07 67.36,89.82 C76.1,84.52 98.9,70.65 99.94,69.8 C99.94,69.8 99.94,68.09 99.51,65.91 L28.63,66 L28.89,91.42 Z" fill="#212121"/>
  <path d="M122.81,52.03 L66.01,85.86 C64.77,86.6 63.22,86.6 61.97,85.86 L5.19,52.03 C3.61,51.09 3.61,48.8 5.19,47.86 L61.99,14.03 C63.23,13.29 64.78,13.29 66.03,14.03 L122.83,47.86 C124.4,48.8 124.4,51.09 122.81,52.03 Z" fill="#424242"/>
  <path d="M64.04,83.38 C64.03,83.38 64.01,83.39 64,83.39 C63.84,83.39 63.68,83.35 63.54,83.26 L4.18,49.04 C4.18,49.04 3.89,49.59 4.18,50.58 C4.48,51.57 4.94,51.89 5.19,52.04 L61.99,85.87 C62.61,86.24 63.31,86.43 64.01,86.43 C64.02,86.43 64.04,86.43 64.05,86.43 L64.05,83.38 Z" fill="#9E9E9E"/>
  <path d="M64,83.38 C64.01,83.38 64.03,83.39 64.04,83.39 C64.2,83.39 64.36,83.35 64.5,83.26 L123.86,49.04 C123.86,49.04 124.15,49.59 123.86,50.58 C123.56,51.57 123.1,51.89 122.85,52.04 L66.05,85.87 C65.43,86.24 64.73,86.43 64.03,86.43 C64.02,86.43 64,86.43 63.99,86.43 L63.99,83.38 Z" fill="#616161"/>
  <path d="M35.45,70.06 L35.77,67.25 C35.77,67.25 60.28,53.92 62.7,52.52 C65.12,51.12 67.66,49.56 68.79,48.31 C70.79,46.11 69.35,44.73 69.35,44.73 C69.35,44.73 67.77,47.29 64,46.84 C61.84,46.58 59.03,44.83 58.56,44.01 C58.09,43.19 30.89,63.91 30.89,63.91 L30.7,67.24 L35.45,70.06 Z" fill="#424242"/>
  <path d="M69.35,44.74 C66.73,48.4 62.29,46.8 62.29,46.8 C62.29,46.8 48.38,53.47 47.86,52.46 C47.34,51.45 59.35,45.27 59.35,45.27 C59.35,45.27 58.68,42.81 58.75,41.76 C58.75,41.76 37.03,55.58 28.88,60.23 C24.61,62.67 23.7,64.97 23.71,68.21 C23.71,69.63 23.73,74.24 23.75,76.99 C23.75,77.5 23.53,77.98 23.14,78.3 C21.99,79.25 21.25,80.68 21.25,82.29 C21.25,83.82 21.92,85.19 22.98,86.14 C23.55,86.65 23.43,87.75 23.48,88.46 C23.58,89.82 23.48,90.44 22.92,91.7 C22.37,92.93 21.86,94.19 21.51,95.49 C21.24,96.49 21.06,97.52 20.88,98.54 C19.69,105.37 19.15,112.67 16,118.95 C15.75,119.44 15.95,120.04 16.45,120.29 C16.59,120.36 16.75,120.4 16.9,120.4 C17.27,120.4 17.62,120.2 17.8,119.85 C19.44,116.58 20.29,113 20.99,109.45 C20.95,112.66 20.93,115.9 20.82,119.4 C20.8,120.08 20.75,121.45 21.37,121.75 C23.7,122.88 23.7,119.4 23.7,119.4 C23.7,119.4 23.73,122.53 26.9,122.53 C30.07,122.53 30.3,119.4 30.3,119.4 C30.3,119.4 30.53,122.27 32.16,122.13 C32.82,122.07 33.69,121.67 33.38,118.24 C33.07,114.82 32.3,102.56 31.97,98.68 C31.51,93.31 29.75,90.12 29.39,88.22 C29.26,87.5 29.25,86.75 29.82,86.28 C30.97,85.33 31.71,83.9 31.71,82.29 C31.71,80.74 31.03,79.35 29.95,78.4 C29.54,78.04 29.33,77.52 29.37,76.98 C29.56,74.39 29.77,70.63 29.94,69.76 C30.68,65.85 32.61,65.15 34.59,63.99 C36.57,62.82 65.25,49.8 66.92,48.69 C70.01,46.62 69.35,44.74 69.35,44.74 Z" fill="#E2A610"/>
  <path d="M69.35,44.74 C66.88,48.23 61.75,46.67 61.75,46.67 C61.75,46.67 48.64,52.48 49.51,51.43 C50.37,50.38 59.35,45.27 59.35,45.27 C59.35,45.27 58.68,42.81 58.75,41.76 C58.75,41.76 36.65,54.53 28.08,60.67 C25.87,62.26 23.13,64.86 25.36,67.45 C26.39,68.64 28.38,68.89 29.65,67.95 C30.42,67.39 31.02,66.57 31.7,65.92 C32.54,65.1 33.56,64.58 34.56,63.99 C36.54,62.82 65.22,49.8 66.89,48.69 C70.01,46.62 69.35,44.74 69.35,44.74 Z" fill="#FFCA28"/>
  <path d="M26.11,91.86 C24.79,91.86 23.9,91.75 23.09,91.56 C22.79,91.49 22.59,91.22 22.61,90.91 L22.87,87.09 C22.9,86.7 23.27,86.43 23.65,86.54 C24.55,86.8 26.35,87.06 29.29,86.44 C29.65,86.36 30.01,86.61 30.05,86.98 L30.45,90.78 C30.48,91.09 30.28,91.38 29.98,91.45 C28.45,91.8 27.34,91.86 26.11,91.86 Z" fill="#9E740B"/>
  <path d="M99.06,91.42 C99.06,91.42 100.83,82.18 100.12,72.35 C100,70.69 98.98,69.26 98.19,75.07 C97.74,78.4 96.76,88.37 95.09,94.6 C97.64,92.76 99.06,91.42 99.06,91.42 Z" fill="#616161"/>
  <path d="M65.73,36.79 C66.46,37.02 67.13,37.58 67.32,38.33 C67.57,39.33 66.94,40.33 66.26,41.11 C64.93,42.64 63.1,43.98 61.07,43.91 C60.4,43.89 59.68,43.67 59.27,43.14 C58.98,42.77 58.88,42.29 58.85,41.82 C58.67,38.39 62.55,35.79 65.73,36.79 Z" fill="#616161"/>
</svg>
